X:1     %Music
T:The Wild Moor
T:Oh Who will shoe my Foot?
B:Randolph, V, 1982. Ozark Folksongs, Illinois Press, Urbana
S:Mrs Walter Harmon, Pineville, Mo., Dec 10, 1928
Z:Randolph, V
F:http://www.folkinfo.org/songs
M:4/4     %Meter
L:1/8     %
K:F
CC |A2 GA F2 CD |C4 z2 
w:It was on a cold, dark win-ter's night 
FG |A2 FA c2 BA | G4 z2
w:As th' wind blew a-cross th' wild moor;
 C2 |A2 B=B c2 Ac |(BA) BG F2
w: Poor Ma-ry come wan-der-in' home_ with her child, 
 ED |C2 FA c2 BG | F6  |]
w:Till she come to her fath-er's own door 